src/_includes/clients/valentino.svg

<svg role="img" aria-labelledby="valentino-svg" viewBox="0 0 205 88" fill="none" xmlns="http://www.w3.org/2000/svg">
  <title id="valentino-svg">Valentino</title>
  <g clip-path="url(#clip0_1837_1013)">
    <path d="M3.16713 29.0802H0V28.5758H9.86073V29.0088H7.05292L15.1861 53.4821L22.0248 29.0088H19.7215V28.5758H25.4085V29.0088H22.3842L13.6014 60.3922L3.16483 29.0802H3.16713ZM19.0742 58.8789H21.8106L30.6648 28.2879H31.1692L40.3827 58.8789H43.4784V59.2383H33.8319V58.8789H36.7111L33.9033 49.4489H24.9063L22.2437 58.8789H24.9801V59.2383H19.0765V58.8789H19.0742ZM33.7582 49.0896L29.2943 34.1177L25.0469 49.0896H33.7582ZM45.0585 58.8789H48.2971V29.0065H44.9134V28.5735H55.5665V29.0065H52.1115L52.0401 58.8075H57.6557C59.1437 58.8075 60.5472 58.3277 61.8662 57.3679C63.1853 56.4082 64.1328 55.1367 64.7086 53.5535C64.9973 52.8334 65.1892 52.2214 65.2844 51.7178C65.3796 51.2141 65.4994 50.434 65.6438 49.3775H65.8603V59.2383H44.9848V58.8789H45.0585ZM67.9494 58.8789H71.0452V29.0065H68.166V28.5735H87.9611V36.2045H87.7446V36.0594C87.697 34.9078 87.3968 33.7323 86.844 32.533C86.2912 31.3337 85.6316 30.4461 84.8654 29.8703C84.3371 29.4864 83.845 29.2346 83.3889 29.1148C82.9329 28.995 82.3447 28.9351 81.6245 28.9351H74.7858V43.2598H77.0178C78.3614 43.2598 79.5008 42.6716 80.436 41.4954C81.3712 40.3191 81.9109 38.7713 82.0553 36.8518H82.3432V50.3127H82.0553V50.0962C82.0077 48.08 81.4917 46.4845 80.5074 45.3098C79.5231 44.1351 78.2156 43.5469 76.5848 43.5454H74.7121V58.7338H80.6871C82.8952 58.7338 84.7909 57.8823 86.3741 56.1794C87.9573 54.4764 88.8932 52.3051 89.1819 49.6654H89.327V59.1669H67.8757V58.8789H67.9494ZM91.4876 58.8789H94.0789V29.0065H91.4876V28.5735H98.4691L110.274 51.1765V29.0065H107.754V28.5735H113.441V29.0065H110.705V59.9592L94.4359 29.0065V58.8789H97.0272V59.2383H91.4853L91.4876 58.8789ZM121.862 58.8789H124.599V29.0065H123.014C121.334 29.0065 119.87 29.762 118.624 31.273C117.377 32.784 116.561 34.7872 116.175 37.2825H115.887V28.5735H136.905V37.3562H136.689C136.497 35.1005 135.789 33.1449 134.565 31.4895C133.341 29.8342 131.985 29.0065 130.497 29.0065H128.337V58.8789H131.216V59.2383H121.931V58.8789H121.862ZM139.858 58.8789H142.883V29.0065H139.932V28.5735H149.291V29.0065H146.34V58.8789H149.291V59.2383H139.861L139.858 58.8789ZM152.094 58.8789H154.685V29.0065H152.094V28.5735H159.075L170.952 51.1765V29.0065H168.503V28.5735H174.19V29.0065H171.382V59.9592L155.114 29.0065V58.8789H157.633V59.2383H152.092L152.094 58.8789ZM175.487 44.4115C175.487 42.2524 175.799 40.1771 176.422 38.1854C177.046 36.1938 177.885 34.4425 178.942 32.9315C179.998 31.4204 181.222 30.2204 182.614 29.3313C184.005 28.4422 185.493 27.9984 187.077 27.9999C188.565 27.9999 189.993 28.4437 191.359 29.3313C192.726 30.2189 193.926 31.4189 194.96 32.9315C195.993 34.444 196.821 36.1953 197.443 38.1854C198.065 40.1756 198.376 42.2747 198.378 44.4829C198.378 48.6105 197.226 52.1853 194.923 55.2074C192.619 58.2294 189.884 59.7412 186.716 59.7427C183.692 59.7903 181.065 58.2785 178.834 55.2074C176.603 52.1362 175.487 48.5368 175.487 44.4092V44.4115ZM193.914 51.1788C194.153 49.9795 194.333 48.7441 194.453 47.4726C194.573 46.2012 194.633 44.9412 194.633 43.6928C194.633 40.766 194.357 38.1263 193.806 35.7738C193.254 33.4213 192.499 31.67 191.539 30.5198C190.963 29.8472 190.279 29.3436 189.487 29.0088C188.694 28.6741 187.843 28.5059 186.932 28.5044C185.252 28.5044 183.86 29.0802 182.756 30.2319C181.652 31.3836 180.836 33.1111 180.308 35.4145C179.972 36.7581 179.72 38.1501 179.552 39.5905C179.385 41.0309 179.301 42.5189 179.301 44.0544C179.301 47.2223 179.565 50.0056 180.094 52.4042C180.622 54.8027 181.366 56.5541 182.326 57.6581C182.854 58.234 183.478 58.6663 184.198 58.9549C184.918 59.2436 185.735 59.388 186.647 59.388C188.711 59.388 190.318 58.74 191.47 57.4439C192.622 56.1479 193.438 54.0603 193.918 51.1811L193.914 51.1788Z" fill="black"/>
  </g>
  <defs>
    <clipPath id="clip0_1837_1013">
      <rect width="205" height="88" fill="white"/>
    </clipPath>
  </defs>
</svg>

<svg role="img" aria-labelledby="valentino-svg" xmlns="http://www.w3.org/2000/svg" viewBox="0 0 205 88">
    <title id="valentino-svg">Valentino</title>
    <path d="M3.17 29.08H0v-.5h9.86V29h-2.8l8.13 24.47 6.83-24.47h-2.3v-.43h5.69V29h-3.03L13.6 60.39 3.16 29.08zm15.9 29.8h2.74l8.85-30.6h.5l9.22 30.6h3.1v.36h-9.65v-.36h2.88l-2.8-9.43h-9l-2.67 9.43h2.74v.36h-5.9v-.36zm14.69-9.79l-4.47-14.97-4.24 14.97h8.7zm11.3 9.79h3.24V29H44.9v-.44h10.66v.44H52.1l-.07 29.8h5.62c1.48 0 2.89-.48 4.2-1.44a7.97 7.97 0 002.85-3.82c.29-.72.48-1.33.57-1.83.1-.5.22-1.29.36-2.34h.22v9.86H44.98v-.36h.08zm22.89 0h3.1V29h-2.88v-.44h19.8v7.63h-.23v-.14a9.32 9.32 0 00-.9-3.53 6.8 6.8 0 00-1.97-2.66 4.54 4.54 0 00-1.48-.76 7.14 7.14 0 00-1.77-.17H74.8v14.32h2.23c1.34 0 2.48-.59 3.42-1.76a8.28 8.28 0 001.62-4.65h.28v13.46h-.28v-.21c-.05-2.02-.57-3.62-1.55-4.79a4.87 4.87 0 00-3.93-1.76h-1.87v15.18h5.98c2.2 0 4.1-.85 5.68-2.55a11.03 11.03 0 002.81-6.51h.15v9.5H67.88v-.3h.07zm23.54 0h2.59V29h-2.6v-.44h6.99l11.8 22.6V29.02h-2.52v-.44h5.7v.44h-2.75v30.95L94.44 29v29.87h2.59v.36h-5.54v-.36zm30.37 0h2.74V29H123c-1.68 0-3.14.75-4.39 2.26a12.18 12.18 0 00-2.45 6.01h-.28v-8.7h21.02v8.78h-.22c-.2-2.26-.9-4.21-2.13-5.87-1.22-1.66-2.57-2.48-4.06-2.48h-2.16v29.87h2.88v.36h-9.29v-.36h-.07zm18 0h3.02V29h-2.95v-.44h9.36v.44h-2.95v29.87h2.95v.36h-9.43v-.36zm12.23 0h2.6V29h-2.6v-.44h6.98l11.88 22.6V29.02h-2.45v-.44h5.69v.44h-2.8v30.95L155.1 29v29.87h2.52v.36h-5.54v-.36zm23.4-14.47c0-2.16.3-4.23.93-6.22.63-2 1.47-3.75 2.52-5.26a13.1 13.1 0 013.67-3.6 8.13 8.13 0 014.47-1.33c1.48 0 2.91.44 4.28 1.33 1.37.89 2.57 2.09 3.6 3.6a21.05 21.05 0 013.42 11.55c0 4.13-1.15 7.7-3.46 10.73-2.3 3.02-5.04 4.53-8.2 4.53-3.03.05-5.66-1.46-7.89-4.53a17.88 17.88 0 01-3.34-10.8zm18.42 6.77a36.5 36.5 0 00.72-7.49c0-2.92-.27-5.56-.82-7.92-.56-2.35-1.31-4.1-2.27-5.25a5.48 5.48 0 00-2.05-1.51c-.8-.34-1.65-.5-2.56-.5-1.68 0-3.07.57-4.17 1.72s-1.92 2.88-2.45 5.18a32.92 32.92 0 00-.76 4.18 38.74 38.74 0 00-.25 4.46c0 3.17.26 5.96.8 8.35.52 2.4 1.27 4.15 2.23 5.26.52.57 1.15 1 1.87 1.3.72.28 1.54.43 2.45.43 2.06 0 3.67-.65 4.82-1.95 1.15-1.3 1.97-3.38 2.45-6.26z"/>
</svg>
